src/svgs/barcode.svg

<svg xmlns="http://www.w3.org/2000/svg" viewBox="0 0 24 24" width="512" height="512"><path d="M22 20V4h-2v16zm-3 0V4h-4v16zm-5 0V4h-2v16zm-3 0V4H9v16zm-3 0V4H5v16zm-4 0V4H2v16z"/></svg>

<svg xmlns="http://www.w3.org/2000/svg" viewBox="0 0 24 24"><path d="M22,20V4H20V20Zm-3,0V4H15V20Zm-5,0V4H12V20Zm-3,0V4H9V20ZM8,20V4H5V20ZM4,20V4H2V20Z"/></svg>
